!!!OTL: Nachtwaechterlied.
!!!OTL-incipit: HOERT IHR HERRN UND LASST EUCH SAGEN
!!!ARE: Europa, Mitteleuropa, Deutschland, Schwaben
!!!SCT: Z1293
!!!TXL: @@DE
!!!YEM: Copyright 1995, estate of Helmut Schaffrath.
**kern	**text	**text
*ICvox	*	*
*M3/4	*	*
*k[]	*	*
*C:	*	*
!LO:TX:a:t=Aus Schwaben.	!	!
{2c	Hört,	Men-
4e	ihr	-ſchen-
=1	=1	=1
2g	Herrn,	-wa-
4e	und	-chen
=2	=2	=2
2cc/	laßt	kann
4g	euch	nichts
=3	=3	=3
2a	ſa-	nüʒ-
4g}	-gen,	-ʒen,
=4	=4	=4
{2cc/	un-	Gott
4g	-ſre	muß
=5	=5	=5
2a	Glock'	wa-
4g	hat	-chen,
=6	=6	=6
(>4g	acht	Gott
4f)	.	.
4e	ge-	muß
=7	=7	=7
4e	-ſchlagen;	ſchütʒen;
4d	.	.
4r}	.	.
=8	=8	=8
{2g	nur	Herr,
4e	acht	durch
=9	=9	=9
2a	See-	dei-
4g	-len	-ne
=10	=10	=10
(>4g	ſprach	wei-
4f)	.	.
4e	Gott	-ſe
=11	=11	=11
2d	los,	Macht
4r}	.	.
=12	=12	=12
{2cc/	als	gieb
4g	die	uns
=13	=13	=13
2a	Sünd-	ei-
8gL	-fluth	-ne
8fJ	.	.
=14	=14	=14
2e	ſich	gu-
4d	er-	-te
=15	=15	=15
2c	-goß.	Nacht!
4r}	.	.
==	==	==
!!!AGN: Handwerker -, Bauern - Lied
!!!ONB: ESAC (Essen Associative Code) Database: ZUCCAL
!!!AMT: simple triple
!!!AIN: vox
!!!EED: Helmut Schaffrath
!!!EEV: 1.0
!!!GTL: VII. Jagd-, Bunkt- und GewerksLieder.
!!!URL-scan: https://www.digitale-sammlungen.de/de/view/bsb11160573?page=534
!!!ENC: Anna Maria Matuszewska
!!!EEV: 2025/02/07
*-	*-	*-
